X:1
T:Åpen korøvelse - Maliswe
T:anon.
%%score { 1 | 2 }
L:1/8
M:4/4
K:G
V:1 treble nm="Piano"
V:2 bass 
V:1
 z4 z2 (3:2:2z2 [DG] |: ([DG]2 (3:2:2[DG]2) ([B,D] [B,D]4) | %2
w: Ma-|li- * swe, _|
 (3[EG]2 [EG]2 [EG]2 (3:2:2[DF]2 ([DF] (3:2:2[DF]2) [DG] | ([DG]2 (3:2:2[DG]2) ([B,D] [B,D]4) | %4
w: bo- e- le kay- a, _ Ma-|li- * swe, _|
 (3[EG]2 [EG]2 [EG]2 (3:2:2[DF]2 ([DF] (3:2:2[DF]2) [DG] | ([DG]2 (3:2:2[DG]2) ([B,D] [B,D]4) | %6
w: bo- e- le kay- a, _ Ma-|li- * swe, _|
 (3[EG]2 [EG]2 [EG]2 (3:2:2[DF]2 [DF] z2 | %7
w: bo- e- le kay- a,|
 (3:2:2z2 [EA] (3:2:2[EA]2 [DG] (3:2:2[EA]2 [DG] (3:2:2[EF]2 ([EG] |1 %8
w: ti- na si- sa ku- fu- na,|
 (3:2:2[EA]2) [DG]4 z2 (3:2:2z2 [DG] :|2 (3:2:2[EA]2 [DG]4 z4 |: %10
w: _ ah. Ma\-|\-a, ah.|
 [DG]2 (3:2:2z2 [DG] z2 (3:2:2z2 [DE] | (3[EG]2 [EG]2 [EG]2 (3[DF]2 [DF]2 [DF]2 | %12
w: Hai! Hai! Sia-|ham- ba no So- ko- lo,|
 [DG]2 (3:2:2z2 [DG] z2 (3:2:2z2 [DE] | (3[EG]2 [EG]2 [EG]2 (3[DF]2 [DF]2 [DF]2 | %14
w: Hai! Hai! Sia-|ham- ba no So- ko- lo,|
 [DG]2 (3:2:2z2 [DG] z2 (3:2:2z2 [DE] | (3[EG]2 [EG]2 [EG]2 (3[DF]2 [DF]2 [DF]2 | %16
w: Hai! Hai! Sia-|ham- ba no So- ko- lo,|
 (3:2:2z2 [EA] (3:2:2[EA]2 [DG] (3:2:2[EA]2 [DG] (3:2:2[EF]2 ([EG] | (3:2:2[EA]2) [DG]4 z4 :| %18
w: ti- na si- sa ku- fu- na,|_ ah.|
V:2
 z4 z2 (3:2:2z2 [G,B,] |: ([G,B,]2 (3:2:2[G,B,]2) [G,,-G,] [G,,G,]4 | %2
 (3[C,C]2 [C,C]2 [C,C]2 (3:2:2[D,A,]2 ([D,A,] (3:2:2[D,A,]2) [G,B,] | %3
 ([G,B,]2 (3:2:2[G,B,]2) [G,,-G,] [G,,G,]4 | %4
 (3[C,C]2 [C,C]2 [C,C]2 (3:2:2[D,A,]2 ([D,A,] (3:2:2[D,A,]2) [G,B,] | %5
 ([G,B,]2 (3:2:2[G,B,]2) [G,,-G,] [G,,G,]4 | (3[C,C]2 [C,C]2 [C,C]2 (3:2:2[D,A,]2 [D,A,] z2 | %7
 (3:2:2z2 [D,C] (3:2:2[D,C]2 [D,B,] (3:2:2[D,C]2 [D,B,] (3:2:2[D,A,]2 ([D,B,] |1 %8
 (3:2:2[D,C]2) [G,,B,]4 z2 (3:2:2z2 [G,B,] :|2 (3:2:2[D,C]2 [G,,B,]4 z4 |: %10
 [G,B,]2 (3:2:2z2 [G,B,] z2 (3:2:2z2 [G,B,] | (3[C,C]2 [C,C]2 [C,C]2 (3[D,A,]2 [D,A,]2 [D,A,]2 | %12
 [G,B,]2 (3:2:2z2 [G,B,] z2 (3:2:2z2 [G,B,] | (3[C,C]2 [C,C]2 [C,C]2 (3[D,A,]2 [D,A,]2 [D,A,]2 | %14
 [G,B,]2 (3:2:2z2 [G,B,] z2 (3:2:2z2 [G,B,] | (3[C,C]2 [C,C]2 [C,C]2 (3[D,A,]2 [D,A,]2 [D,A,]2 | %16
 (3:2:2z2 [D,C] (3:2:2[D,C]2 [D,B,] (3:2:2[D,C]2 [D,B,] (3:2:2[D,A,]2 ([D,B,] | %17
 (3:2:2[D,C]2) [G,,B,]4 z4 :| %18

